icons/mapbox.svg

<?xml version="1.0" encoding="UTF-8"?>
<svg width="256px" height="254px" viewBox="0 0 256 254" version="1.1" xmlns="http://www.w3.org/2000/svg" xmlns:xlink="http://www.w3.org/1999/xlink" preserveAspectRatio="xMidYMid">
    <g>
        <path d="M128,0 C198.695163,0 256,56.688374 256,126.623027 C256,196.557679 198.695163,253.246053 128,253.246053 C57.3048369,253.246053 0,196.557679 0,126.623027 C0,56.688374 57.3048369,0 128,0 Z M186.744657,68.5103213 C161.259842,43.4420956 120.944882,42.4450639 96.6119236,66.516258 C53.575703,109.089512 66.2664494,184.082647 66.7912938,187.065343 L66.807649,187.157094 C66.807649,187.157094 144.989876,200.973105 188.760405,157.673442 C213.093363,133.602248 212.229471,93.5785471 186.744657,68.5103213 Z M142.686164,74.2076454 L155.212598,99.7031703 L180.985376,112.09485 L155.212598,124.48653 L142.686164,149.982055 L130.15973,124.48653 L104.386952,112.09485 L130.15973,99.7031703 L142.686164,74.2076454 Z" fill="#485160"></path>
    </g>
</svg>

<svg xmlns="http://www.w3.org/2000/svg" viewBox="0 0 256 253.246">
  <path fill="#485160" d="M128 0c70.695 0 128 56.688 128 126.623s-57.305 126.623-128 126.623S0 196.558 0 126.623 57.305 0 128 0zm58.745 68.51c-25.485-25.068-65.8-26.065-90.133-1.994-43.036 42.574-30.346 117.567-29.82 120.55l.016.091s78.182 13.816 121.952-29.484c24.333-24.07 23.47-64.094-2.015-89.163zm-44.059 5.698 12.527 25.495 25.772 12.392-25.772 12.392-12.527 25.495-12.526-25.495-25.773-12.392 25.773-12.392z"/>
</svg>
